X: 6796
T: Charlemont House
R: jig
M: 6/8
K: Gmajor
|:D|G2 A B2 c|dge dBG|c2 A B2 G|A2 G FED|
G2 A B2 c|dg/f/e dBd|D2 c A^GA|DGF G2:|
|:E|Dd^c d2 =c|AA/B/c BAG|c2 D BDD|A2 D A^GA|
[1 Ggf g2 e|dBg dBG|c2 D BDD|A^GA GF:|
[2 Ggf gfe|d[g/c'/][f/b/][ea] gdB|D2 c/B/ A^GA|DGF G2||

